X: 1
T: Maggie West's Waltz
M: 3/4
L: 1/8
K: Gmaj
D GA|"G"B3 B AG|"C"E G3 GA|"G"Bd dg (3gab|"D"a3 a ga|
"C"~g e2 d ge|"G"d3 B AG|1 "Am"A3 AB (3BAG|"D"A3:|[2 "D"A2 (3ABA GF|"C"G3||
|: d (3~BAG|"G"A G2 d (3~BAG|"Em"A G2 d (3~BAG|"G"AB dg- (3gab|"D"a3 a ga|
"C"~g e2 d ge|"G"d3 B AG|1 "Am"A2 AB (3BAG|"D"A3:|2 "Am"A2 (3ABA "D7"GF|"G"G3|]
